src/assets/filled/Stickynote.svg

<svg width="24" height="24" viewBox="0 0 24 24"  xmlns="http://www.w3.org/2000/svg">
<path d="M8.29004 6.29C7.87004 6.29 7.54004 5.95 7.54004 5.54V2.75C7.54004 2.34 7.87004 2 8.29004 2C8.71004 2 9.04004 2.34 9.04004 2.75V5.53C9.04004 5.95 8.71004 6.29 8.29004 6.29Z" />
<path d="M15.71 6.29C15.29 6.29 14.96 5.95 14.96 5.54V2.75C14.96 2.33 15.3 2 15.71 2C16.13 2 16.46 2.34 16.46 2.75V5.53C16.46 5.95 16.13 6.29 15.71 6.29Z" />
<path d="M21.4999 15.8197C21.4999 15.9697 21.4499 16.1197 21.3199 16.2497C19.8699 17.7097 17.2899 20.3097 15.8099 21.7997C15.6799 21.9397 15.5099 21.9997 15.3399 21.9997C15.0099 21.9997 14.6899 21.7397 14.6899 21.3597V17.8597C14.6899 16.3997 15.9299 15.1897 17.4499 15.1897C18.3999 15.1797 19.7199 15.1797 20.8499 15.1797C21.2399 15.1797 21.4999 15.4897 21.4999 15.8197Z" />
<path d="M21.4999 15.8197C21.4999 15.9697 21.4499 16.1197 21.3199 16.2497C19.8699 17.7097 17.2899 20.3097 15.8099 21.7997C15.6799 21.9397 15.5099 21.9997 15.3399 21.9997C15.0099 21.9997 14.6899 21.7397 14.6899 21.3597V17.8597C14.6899 16.3997 15.9299 15.1897 17.4499 15.1897C18.3999 15.1797 19.7199 15.1797 20.8499 15.1797C21.2399 15.1797 21.4999 15.4897 21.4999 15.8197Z" />
<path d="M19.57 4.5C18.91 4.01 17.96 4.48 17.96 5.31V5.41C17.96 6.58 17.12 7.66 15.95 7.78C14.6 7.92 13.46 6.86 13.46 5.54V4.5C13.46 3.95 13.01 3.5 12.46 3.5H11.54C10.99 3.5 10.54 3.95 10.54 4.5V5.41C10.54 6.29 10.07 7.11 9.34 7.51C9.3 7.54 9.26 7.56 9.22 7.58C9.21 7.58 9.21 7.59 9.2 7.59C9.13 7.62 9.06 7.65 8.98 7.68C8.96 7.69 8.94 7.69 8.92 7.7C8.8 7.74 8.67 7.77 8.53 7.78H8.52C8.37 7.8 8.21 7.8 8.06 7.78H8.05C7.91 7.77 7.78 7.74 7.66 7.7C7.56 7.67 7.46 7.63 7.36 7.58C6.58 7.23 6.04 6.45 6.04 5.54V5.31C6.04 4.54 5.22 4.08 4.57 4.41C4.56 4.42 4.55 4.42 4.54 4.43H4.53C4.46 4.48 4.4 4.53 4.33 4.58C4.22 4.67 4.11 4.76 4.01 4.86C3.94 4.93 3.87 5 3.81 5.07C3.73 5.15 3.66 5.23 3.59 5.32C3.54 5.38 3.48 5.44 3.44 5.51C3.39 5.57 3.35 5.64 3.31 5.7C3.3 5.71 3.29 5.72 3.28 5.74C3.19 5.87 3.11 6.02 3.04 6.16C3.02 6.18 3.01 6.19 3.01 6.21C2.95 6.33 2.89 6.45 2.85 6.58C2.82 6.63 2.81 6.67 2.79 6.72C2.77 6.76 2.76 6.81 2.74 6.85C2.71 6.95 2.68 7.06 2.65 7.17C2.61 7.31 2.58 7.46 2.56 7.61C2.54 7.72 2.53 7.83 2.52 7.95C2.51 8.09 2.5 8.23 2.5 8.37V17.13C2.5 19.82 4.68 22 7.37 22H12.19C12.74 22 13.19 21.55 13.19 21V17.86C13.19 15.56 15.1 13.69 17.45 13.69C17.98 13.68 19.27 13.68 20.5 13.68C21.05 13.68 21.5 13.23 21.5 12.68V8.37C21.5 6.78 20.74 5.39 19.57 4.5ZM11.13 15.91C11.04 16.21 10.76 16.42 10.43 16.42H6.79C6.74 16.42 6.7 16.42 6.66 16.4C6.3 16.35 6.04 16.04 6.04 15.67C6.04 15.25 6.37 14.91 6.79 14.91H10.43C10.84 14.91 11.18 15.25 11.18 15.67C11.18 15.75 11.17 15.84 11.13 15.91ZM13.91 12.2C13.82 12.5 13.54 12.71 13.21 12.71H6.79C6.74 12.71 6.7 12.71 6.66 12.69C6.3 12.64 6.04 12.33 6.04 11.96C6.04 11.54 6.37 11.2 6.79 11.2H13.21C13.63 11.2 13.96 11.54 13.96 11.96C13.96 12.04 13.95 12.13 13.91 12.2Z" />
</svg>

<?xml version="1.0" encoding="UTF-8"?>
<svg width="24" height="24" viewBox="0 0 24 24" xmlns="http://www.w3.org/2000/svg">
 <path d="m8.29 6.29c-0.42 0-0.75-0.34-0.75-0.75v-2.79c0-0.41 0.33-0.75 0.75-0.75s0.75 0.34 0.75 0.75v2.78c0 0.42-0.33 0.76-0.75 0.76z"/>
 <path d="m15.71 6.29c-0.42 0-0.75-0.34-0.75-0.75v-2.79c0-0.42 0.34-0.75 0.75-0.75 0.42 0 0.75 0.34 0.75 0.75v2.78c0 0.42-0.33 0.76-0.75 0.76z"/>
 <path d="m21.5 15.82c0 0.15-0.05 0.3-0.18 0.43-1.45 1.46-4.03 4.06-5.51 5.55-0.13 0.14-0.3 0.2-0.47 0.2-0.33 0-0.65-0.26-0.65-0.64v-3.5c0-1.46 1.24-2.67 2.76-2.67 0.95-0.01 2.27-0.01 3.4-0.01 0.39 0 0.65 0.31 0.65 0.64z"/>
 <path d="m21.5 15.82c0 0.15-0.05 0.3-0.18 0.43-1.45 1.46-4.03 4.06-5.51 5.55-0.13 0.14-0.3 0.2-0.47 0.2-0.33 0-0.65-0.26-0.65-0.64v-3.5c0-1.46 1.24-2.67 2.76-2.67 0.95-0.01 2.27-0.01 3.4-0.01 0.39 0 0.65 0.31 0.65 0.64z"/>
 <path d="m19.57 4.5c-0.66-0.49-1.61-0.02-1.61 0.81v0.1c0 1.17-0.84 2.25-2.01 2.37-1.35 0.14-2.49-0.92-2.49-2.24v-1.04c0-0.55-0.45-1-1-1h-0.92c-0.55 0-1 0.45-1 1v0.91c0 0.88-0.47 1.7-1.2 2.1-0.04 0.03-0.08 0.05-0.12 0.07-0.01 0-0.01 0.01-0.02 0.01-0.07 0.03-0.14 0.06-0.22 0.09-0.02 0.01-0.04 0.01-0.06 0.02-0.12 0.04-0.25 0.07-0.39 0.08h-0.01c-0.15 0.02-0.31 0.02-0.46 0h-0.01c-0.14-0.01-0.27-0.04-0.39-0.08-0.1-0.03-0.2-0.07-0.3-0.12-0.78-0.35-1.32-1.13-1.32-2.04v-0.23c0-0.77-0.82-1.23-1.47-0.9-0.01 0.01-0.02 0.01-0.03 0.02h-0.01c-0.07 0.05-0.13 0.1-0.2 0.15-0.11 0.09-0.22 0.18-0.32 0.28-0.07 0.07-0.14 0.14-0.2 0.21-0.08 0.08-0.15 0.16-0.22 0.25-0.05 0.06-0.11 0.12-0.15 0.19-0.05 0.06-0.09 0.13-0.13 0.19-0.01 0.01-0.02 0.02-0.03 0.04-0.09 0.13-0.17 0.28-0.24 0.42-0.02 0.02-0.03 0.03-0.03 0.05-0.06 0.12-0.12 0.24-0.16 0.37-0.03 0.05-0.04 0.09-0.06 0.14-0.02 0.04-0.03 0.09-0.05 0.13-0.03 0.1-0.06 0.21-0.09 0.32-0.04 0.14-0.07 0.29-0.09 0.44-0.02 0.11-0.03 0.22-0.04 0.34-0.01 0.14-0.02 0.28-0.02 0.42v8.76c0 2.69 2.18 4.87 4.87 4.87h4.82c0.55 0 1-0.45 1-1v-3.14c0-2.3 1.91-4.17 4.26-4.17 0.53-0.01 1.82-0.01 3.05-0.01 0.55 0 1-0.45 1-1v-4.31c0-1.59-0.76-2.98-1.93-3.87zm-8.44 11.41c-0.09 0.3-0.37 0.51-0.7 0.51h-3.64c-0.05 0-0.09 0-0.13-0.02-0.36-0.05-0.62-0.36-0.62-0.73 0-0.42 0.33-0.76 0.75-0.76h3.64c0.41 0 0.75 0.34 0.75 0.76 0 0.08-0.01 0.17-0.05 0.24zm2.78-3.71c-0.09 0.3-0.37 0.51-0.7 0.51h-6.42c-0.05 0-0.09 0-0.13-0.02-0.36-0.05-0.62-0.36-0.62-0.73 0-0.42 0.33-0.76 0.75-0.76h6.42c0.42 0 0.75 0.34 0.75 0.76 0 0.08-0.01 0.17-0.05 0.24z"/>
</svg>
